X: 1
T: Ubhaibh Abhaibh
C: John M Bannerman ?
R: air
Z: 2009 John Chambers <jc:trillian.mit.edu>
S: PDF from Hamish Paterson 2009-3-25
M: C
L: 1/8
K: Bm
"A"|: "Bm"B2 B2 B<B B2 | "D"F2 F>E D>E F2 | "Bm"B2 B2 B<B B2 | "A"A2 c>c "Bm"B4 :|
"B"|: "Bm"B,2 D2 F2 B2 | "F#m"(3FFF F>E D>C B,2 | "Bm"B,2 D2 F2 B2 |1 "A"A2 c>c "Bm"B4 :|2 "A"A2 c<c "Bm"B4 |]
